X:23
C:Page 11
T:Haste to the Wedding. MBe.23
S:Matthew Betham MS, Towcett Cumbria, 1815
O:England;Cumbria;Towcett
Z:VMP – Hugh Taylor, 2012
T:Rural Felicity,aka. MBe.23
M:6/8
L:1/8
Q:3/8=120
R:.Jig
K:D
AFA Ade|fde fdB|AFA AdF|GFF F3|
AFA Ade|fde gdB|AFA faf”^barline added”|ded d2:|
|:”^Crs in MS”f/g/|afa afa|bgb bgb|afa agg|gee “Qu in MS”e2f/g/|
a3 f3|ede fdB|AFA faf|ded d2:|

